X: 8217
T: Copenhagen
R: waltz
M: 3/4
K: Gmajor
Bd|ce Bd Ac|Bd G2 Bd|Ac D2 FA|GB D2 Bd|
ce Bd Ac|Bd G2 Bd|Ac D2 FA|G4||
Bd|Ac D2 FA|GB D2 Bd|Ac D2 FA|GB D2 Bd|
ce Bd Ac|Bd G2 Bd|Ac D2 FA|G4||
d|e2 d2 B2|G4 d2|e2 d2 B2|A4 d2|
e2 d2 B2|GF GB dB|A^G AB cA|G4||

